X:96
T: WIR HABN EIN SCHIFF MIT WEIN BELADN
N: E1125
O: Europa, Mitteleuropa, Deutschland
R: Trink -, Zech - Lied
M: 4/4
L: 1/8
K: G
G2G2G2 | d2d2e2e2 | c4
d2e2 | =f2g2e4 | d4z2
d2 | g2g2e2e2 | =f2f2d4
c2A2G4
_B2c2d4 | A2_B2c4
G2A2B2c2 | A3GG4
_B2c2d4 | A2_B2c4
G2A2B2c2 | A3GG4 | z2

